icons/svg/32x32/time/outline.svg

<svg width="32" height="32" fill="none" xmlns="http://www.w3.org/2000/svg">
  <path fill-rule="evenodd" clip-rule="evenodd" d="M19.707 21.707a.999.999 0 000-1.414l-3.6-3.6 1.863-7.451a1 1 0 00-1.94-.484l-2 8a.997.997 0 00.263.949l4 4a.997.997 0 001.414 0zM16 3c-2.34 0-4.621.25-6.819.725a7.112 7.112 0 00-5.455 5.456A32.172 32.172 0 003 16c0 2.34.25 4.621.726 6.819a7.111 7.111 0 005.455 5.455C11.379 28.75 13.66 29 16 29s4.621-.25 6.819-.726a7.111 7.111 0 005.455-5.455A32.18 32.18 0 0029 16c0-2.34-.25-4.621-.726-6.819a7.111 7.111 0 00-5.455-5.455A32.186 32.186 0 0016 3zm0 2c2.157 0 4.31.228 6.396.681a5.127 5.127 0 013.923 3.922C26.771 11.691 27 13.844 27 16c0 2.156-.229 4.309-.681 6.396a5.13 5.13 0 01-3.923 3.923c-2.087.452-4.24.681-6.396.681-2.156 0-4.309-.229-6.397-.681a5.13 5.13 0 01-3.923-3.923A30.263 30.263 0 015 16c0-2.157.228-4.31.68-6.397A5.13 5.13 0 019.603 5.68 30.293 30.293 0 0116 5z" fill="#000"/>
</svg>

<svg xmlns="http://www.w3.org/2000/svg" width="32" height="32" viewBox="0 0 32 32">
  <path fill-rule="evenodd" d="M19.707,21.707 C20.098,21.316 20.098,20.684 19.707,20.293 L16.107,16.693 L17.97,9.242 C18.104,8.707 17.778,8.164 17.242,8.03 C16.707,7.894 16.163,8.221 16.03,8.758 L14.03,16.758 C13.944,17.099 14.045,17.459 14.293,17.707 L18.293,21.707 C18.488,21.902 18.744,22 19,22 C19.256,22 19.512,21.902 19.707,21.707 M16,3 C13.66,3 11.379,3.25 9.181,3.725 C6.447,4.315 4.316,6.447 3.726,9.181 C3.25,11.378 3,13.659 3,16 C3,18.34 3.25,20.621 3.726,22.819 C4.316,25.553 6.447,27.684 9.181,28.274 C11.379,28.75 13.66,29 16,29 C18.34,29 20.621,28.75 22.819,28.274 C25.553,27.684 27.684,25.553 28.274,22.819 C28.75,20.622 29,18.34 29,16 C29,13.66 28.75,11.379 28.274,9.181 C27.684,6.447 25.553,4.316 22.819,3.726 C20.621,3.25 18.34,3 16,3 M16,5 C18.157,5 20.31,5.228 22.396,5.681 C24.356,6.103 25.896,7.644 26.319,9.603 C26.771,11.691 27,13.844 27,16 C27,18.156 26.771,20.309 26.319,22.396 C25.896,24.356 24.356,25.895 22.396,26.319 C20.309,26.771 18.156,27 16,27 C13.844,27 11.691,26.771 9.603,26.319 C7.644,25.896 6.103,24.356 5.68,22.396 C5.228,20.31 5,18.157 5,16 C5,13.843 5.228,11.69 5.68,9.603 C6.103,7.644 7.644,6.103 9.603,5.68 C11.691,5.228 13.844,5 16,5"/>
</svg>
